X: 42801
T: Whitling Run, The
R: reel
M: 4/4
K: Bminor
|:Bffe fBef|Bffa fecB|AeeA fAeA|afef Afec|
Bffe fBef|Bffa fecB|Acce feeA|cfec cB (3BBB:|
|:fBce fafe|fBBe fecB|Ac (3ccc ecBc|eA (3AAA fece|
fBce fafe|fB (3BBB f2 ec|Acce feeA|cfec cB (3BBB:|

